!!!COM: Bach, Johann Sebastian
!!!CDT: 1685/3//-1750/7/28/
!!!OTL@@DE: Sei Lob und Ehr' dem hoechsten Gut
!!!AGN: 4-Part Chorale
!!!SCT: BH 354
!!!SCT: BWV 117
**harm	**root	**kern	**kern	**kern	**kern
!	!	!bass	!tenor	!alto	!soprno
*	*Iorgan	*Iorgan	*Iorgan	*Iorgan	*Iorgan
*M4/4	*M4/4	*M4/4	*M4/4	*M4/4	*M4/4
*met(c)	*met(c)	*met(c)	*met(c)	*met(c)	*met(c)
*MM60	*MM60	*MM60	*MM60	*MM60	*MM60
*k[f#c#]	*k[f#c#]	*k[f#c#]	*k[f#c#]	*k[f#c#]	*k[f#c#]
*D:	*D:	*D:	*D:	*D:	*D:
*>[A,A,B]	*>[A,A,B]	*>[A,A,B]	*>[A,A,B]	*>[A,A,B]	*>[A,A,B]
*>A	*>A	*>A	*>A	*>A	*>A
Vb	4DD	4C#	8A	4e	4a
.	.	.	8G	.	.
=1	=1	=1	=1	=1	=1
I	4GG	4D	4F#	4d	4a
V	4DD	4AA	4E	8d	4a
.	.	.	.	8c#	.
I	4GG	4DD	4F#	4d	8a
.	.	.	.	.	8b
-VIIb	8FF	8EE	4E	8G	4cc
iiio7	8BB	8FF#	.	8A	.
=2	=2	=2	=2	=2	=2
IV	4CC	4GG	8D	8.B	4b
.	.	.	8G	.	.
.	.	.	.	16c	.
I	4GG	4DD	8G	4d	4a
.	.	.	8F#	.	.
IV;	4CC;	4GG;	4B;	4d;	4g;
Vb	4DD	4C#	4A	4e	4a
=3	=3	=3	=3	=3	=3
I	4GG	4.D	8A	4d	8f#
.	.	.	8G	.	8e
I	8GG	.	8F#	4A	8d
Vb	8DD	8C#	8E	.	8e
vi	4EE	8BB	4D	8d	4f#
.	.	8C#	.	8c#	.
V/V	4AA	8D	4E	4B	4g#
.	.	8E	.	.	.
=4	=4	=4	=4	=4	=4
Vb	8DD	8C#	8E	8e	4a
V	8DD	8AA	4A	8c#	.
V7/V	4AA	4E	.	4d	4b
.	.	.	8G#	.	.
V;	4DD;	4AA;	4A;	4c#;	4a;
=:|!	=:|!	=:|!	=:|!	=:|!	=:|!
*>B	*>B	*>B	*>B	*>B	*>B
I	4GG	8D	4A	4f#	4a
.	.	8E	.	.	.
!!linebreak: 2
=5	=5	=5	=5	=5	=5
Ib	4GG	8F#	8A	4f#	4dd
.	.	8G#	8B	.	.
V	4DD	4A	8c#	8e	4cc#
.	.	.	8d	8f#	.
V/V	4AA	4E	8e	4g#	4b
.	.	.	8d	.	.
Vb/iii	4FF#	4E#	8c#	4g#	4cc#
.	.	.	8B	.	.
=6	=6	=6	=6	=6	=6
Ib	4GG	8F#	4A	4a	8dd
.	.	8D	.	.	8cc#
V/V	4AA	4E	4G#	8e	4b
.	.	.	.	8d	.
V;	4DD;	4AA;	4E;	4c#;	4a;
I	4GG	8D	4F#	4d	4a
.	.	8C#	.	.	.
=7	=7	=7	=7	=7	=7
vi	4EE	8BB	8F#	4d	4dd
.	.	8AA	8G	.	.
Ib	4GG	8GG	4A	4d	4a
.	.	8FF#	.	.	.
IV	4CC	8GG	4G	4d	4b
.	.	8AA	.	.	.
vi	4EE	4BB	8D	4d	8f#
.	.	.	8B	.	8g
=8	=8	=8	=8	=8	=8
Vb	8DD	8C#	8A	8e	4a
vii/ii	8GG#	8D#	8F#	8f#	.
ii	4AA	4E	8G	8B	4g
.	.	.	16B	8e	.
.	.	.	16A#	.	.
VI;	4EE;	4BB;	4B;	4d#;	4f#;
I	4GG	4D	4A	4d	4f#
=9	=9	=9	=9	=9	=9
Vb	4DD	4C#	4A	4e	8e
.	.	.	.	.	8f#
IVb	8CC	8BB	4B	8d	4g
vii7	8FF#	8C#	.	8e	.
I	4GG	4D	4A	8f#	4f#
.	.	.	.	8d	.
iib	4AA	4GG	8G	4B	4e
.	.	.	8F#	.	.
=10	=10	=10	=10	=10	=10
Vb/V	4AA	4GG#	2E	4B	4B
V	4DD	4AA	.	4A	4c#
I;	4GG;	4DD;	4F#;	4A;	4d;
==	==	==	==	==	==
*-	*-	*-	*-	*-	*-
!!!ONB: Near duplicate with erk248.krn
!!chor2scor: -l 2 -o %b.pmx
!!!YEC: Copyright 1994, David Huron
!!!YEC: Changes/Additions 2001 by Craig Stuart Sapp
!!!YEN: United States of America
!!!SMA: 371 Bach Chorales, edited by Ludwig Erk, C.F. Peters
!!!PDT: 1850, 1865
!!!ONB: Harmony and Root analysis done manually
